assets/icons/logo.svg

<svg width="72" height="25" viewBox="0 0 72 25" fill="none" xmlns="http://www.w3.org/2000/svg">
<g clip-path="url(#clip0_25_2556)">
<path d="M10.9824 11.448L9.59012 10.0757V19.396L7.58076 17.4154V8.09513L4.7962 5.35049V14.6708L2.78737 12.6902V3.37047L0.00280762 0.625824V13.8276L10.9824 24.6498L12.3747 23.2708V13.9577L17.1686 9.23197L19.1774 7.25195V16.5197L21.962 13.775V0.625824L10.9824 11.448Z" fill="#111111"/>
<path d="M13.8374 15.7016L14.3841 15.7019V21.2805L17.1686 18.5225V12.4182L13.8374 15.7016Z" fill="#111111"/>
<path d="M34.3798 3.4238H36.066V11.0791H27.0347V3.4238H28.7212V9.53696H30.7295V3.4238H32.3715V9.53696H34.3798V3.4238Z" fill="#111111"/>
<path d="M44.321 11.0791H42.2683L39.5279 7.33886V11.0791H37.8414V3.42389H39.5279V6.9563L42.0686 3.42389H44.0325L41.3806 7.08751L44.321 11.0791Z" fill="#111111"/>
<path d="M48.3706 9.6793C48.8292 9.6793 49.2433 9.5755 49.6133 9.36762C49.9831 9.15998 50.2736 8.87016 50.4842 8.49815C50.6951 8.12638 50.8007 7.71088 50.8007 7.25164C50.8007 6.55887 50.5694 5.98126 50.1073 5.51823C49.6447 5.05523 49.0679 4.82373 48.3762 4.82373C47.6846 4.82373 47.104 5.05523 46.6342 5.51823C46.1647 5.98126 45.9298 6.55887 45.9298 7.25164C45.9298 7.94415 46.1647 8.52204 46.6342 8.98479C47.104 9.44805 47.6828 9.6793 48.3706 9.6793ZM48.3706 11.243C47.1871 11.243 46.2017 10.8625 45.4137 10.1003C44.6259 9.33871 44.2322 8.38881 44.2322 7.25164C44.2322 6.11423 44.6259 5.16458 45.4137 4.40268C46.2017 3.64107 47.1871 3.25974 48.3706 3.25974C49.1472 3.25974 49.8518 3.43318 50.4842 3.77932C51.1167 4.1257 51.6107 4.60328 51.9654 5.21209C52.3206 5.82088 52.4979 6.50082 52.4979 7.25164C52.4979 8.39635 52.1059 9.34777 51.322 10.1059C50.5378 10.8642 49.5542 11.243 48.3706 11.243Z" fill="#111111"/>
<path d="M55.0057 3.4238H60.1648V11.0791H58.4895V4.96591H56.4703L56.1041 8.27939C56.0003 9.22728 55.7249 9.93436 55.2773 10.4009C54.83 10.8677 54.1993 11.1009 53.3858 11.1009H52.9531V9.4824H53.3971C53.9958 9.4824 54.3399 9.10713 54.4289 8.35604L55.0057 3.4238Z" fill="#111111"/>
<path d="M65.0024 5.44706L63.9926 8.18113H66.023L65.0024 5.44706ZM67.0992 11.0791L66.5558 9.62471H63.4601L62.9276 11.0791H61.1522L64.1923 3.42383H65.779L68.9188 11.0791H67.0992Z" fill="#111111"/>
<path d="M27.0347 14.3598H33.0815V22.0151H31.406V15.9017H28.7212V22.0151H27.0347V14.3598Z" fill="#111111"/>
<path d="M36.5428 20.4732H39.6385V22.0151H34.8564V14.3598H39.5164V15.8909H36.5428V17.4H39.2277V18.8982H36.5428V20.4732Z" fill="#111111"/>
<path d="M43.9767 18.0892C44.3095 18.0892 44.5775 17.9871 44.7813 17.783C44.9843 17.5789 45.0863 17.3165 45.0863 16.9955C45.0863 16.675 44.9843 16.4106 44.7813 16.203C44.5775 15.9951 44.3095 15.891 43.9767 15.891H42.745V18.0892H43.9767ZM44.0433 14.3602C44.8272 14.3602 45.4821 14.6101 46.0072 15.1093C46.5323 15.6085 46.7949 16.2357 46.7949 16.9902C46.7949 17.7448 46.5323 18.372 46.0072 18.8712C45.4821 19.3707 44.8272 19.6205 44.0433 19.6205H42.745V22.0153H41.0588V14.3602H44.0433Z" fill="#111111"/>
<path d="M51.0997 20.4952C51.3733 20.4952 51.5952 20.4148 51.7656 20.2544C51.9357 20.0943 52.0206 19.8864 52.0206 19.6313C52.0206 19.3834 51.9357 19.1793 51.7656 19.0187C51.5952 18.8586 51.3733 18.7781 51.0997 18.7781H49.6132V20.4952H51.0997ZM51.8762 16.591C51.8762 16.4671 51.8561 16.3557 51.8153 16.2575C51.7747 16.1589 51.7174 16.0732 51.6434 16.0003C51.5695 15.9274 51.4787 15.8711 51.3716 15.8309C51.2644 15.7907 51.1441 15.7708 51.0112 15.7708H49.6132V17.4002H51.0112C51.2774 17.4002 51.4881 17.3255 51.6434 17.1759C51.7987 17.0266 51.8762 16.8316 51.8762 16.591ZM52.6308 17.9798C52.971 18.1547 53.2355 18.4008 53.4242 18.7181C53.6129 19.035 53.707 19.3977 53.707 19.8062C53.707 20.4185 53.4686 20.9399 52.9914 21.3699C52.5146 21.8003 51.9392 22.0152 51.2662 22.0152H47.9599V14.3599H51.1775C51.8433 14.3599 52.398 14.5477 52.8417 14.923C53.2855 15.2988 53.5076 15.7671 53.5076 16.3286C53.5076 16.6566 53.4298 16.9666 53.2742 17.2579C53.1192 17.5497 52.9045 17.7903 52.6308 17.9798Z" fill="#111111"/>
<path d="M61.6955 14.3599H63.382V22.0151H61.6955V14.3599ZM57.9786 20.4622C58.3336 20.4622 58.6238 20.3584 58.8495 20.1505C59.0752 19.9427 59.1879 19.675 59.1879 19.3469C59.1879 19.1282 59.138 18.9349 59.0383 18.7673C58.9383 18.5996 58.7957 18.4684 58.6111 18.3734C58.4262 18.2789 58.2153 18.2314 57.9786 18.2314H56.7691V20.4622H57.9786ZM58.1008 16.6785C58.6407 16.6785 59.1232 16.7916 59.5485 17.0173C59.9739 17.2435 60.3067 17.5587 60.5469 17.9632C60.7874 18.3681 60.9078 18.8291 60.9078 19.3469C60.9078 20.1269 60.6451 20.7666 60.1198 21.2661C59.5947 21.7655 58.9217 22.0151 58.1008 22.0151H55.0829V14.3599H56.7691V16.6785H58.1008Z" fill="#111111"/>
<path d="M71.1704 22.0151H69.2843L67.7534 19.3906L66.1998 22.0151H64.3137L66.7323 18.0016L64.4693 14.3598H66.3554L67.7422 16.7219L69.1402 14.3598H70.982L68.7518 18.0561L71.1704 22.0151Z" fill="#111111"/>
</g>
<defs>
<clipPath id="clip0_25_2556">
<rect width="71.1724" height="24" fill="white" transform="translate(0 0.637573)"/>
</clipPath>
</defs>
</svg>

<svg xmlns="http://www.w3.org/2000/svg" width="72" height="25" fill="none" viewBox="0 0 72 25"><g fill="#111" clip-path="url(#a)"><path d="M10.982 11.448 9.59 10.076v9.32l-2.01-1.98v-9.32L4.797 5.35v9.32l-2.009-1.98V3.37L.003.626v13.202l10.98 10.822 1.392-1.38v-9.312l4.794-4.726 2.008-1.98v9.268l2.785-2.745V.625z"/><path d="M13.837 15.702h.547v5.579l2.785-2.758v-6.105zM34.38 3.424h1.686v7.655h-9.031V3.424h1.686v6.113h2.009V3.424h1.641v6.113h2.009zm9.941 7.656h-2.053l-2.74-3.741v3.74H37.84V3.424h1.687v3.532l2.54-3.532h1.965L41.38 7.088z"/><path d="M48.37 9.68q.689 0 1.243-.312t.871-.87.317-1.246q0-1.039-.694-1.734-.694-.694-1.73-.694-1.038 0-1.743.694t-.704 1.734.704 1.733 1.737.694m0 1.563q-1.774 0-2.956-1.143-1.182-1.142-1.182-2.848t1.182-2.85q1.181-1.141 2.957-1.142a4.33 4.33 0 0 1 2.113.52 3.8 3.8 0 0 1 1.481 1.432q.534.914.533 2.04 0 1.717-1.176 2.854t-2.951 1.137m6.634-7.818h5.159v7.655H58.49V4.966h-2.02l-.366 3.313q-.156 1.422-.827 2.122t-1.891.7h-.433V9.482h.444q.898 0 1.032-1.126zm9.996 2.023-1.01 2.734h2.031zM67.1 11.08l-.543-1.454H63.46l-.532 1.454h-1.776l3.04-7.655h1.587l3.14 7.655zm-40.065 3.28h6.046v7.655h-1.675v-6.113h-2.685v6.113h-1.686zm9.508 6.113h3.096v1.542h-4.783V14.36h4.66v1.53h-2.973v1.51h2.685v1.498h-2.685zm7.434-2.383q.499 0 .804-.307.305-.306.305-.788 0-.48-.305-.792t-.804-.312h-1.232v2.198zm.066-3.73q1.177 0 1.964.75.788.748.788 1.88 0 1.133-.788 1.881-.788.75-1.964.75h-1.298v2.394h-1.686V14.36zm7.057 6.135q.41 0 .666-.24a.82.82 0 0 0 .255-.624.8.8 0 0 0-.255-.612q-.256-.24-.666-.24h-1.487v1.716zm.776-3.904a.9.9 0 0 0-.06-.334.8.8 0 0 0-.173-.257.8.8 0 0 0-.271-.17 1 1 0 0 0-.36-.06h-1.399v1.63h1.398q.4 0 .632-.224a.78.78 0 0 0 .233-.585m.755 1.389q.51.262.793.738t.283 1.088q0 .92-.716 1.564-.715.645-1.725.645H47.96V14.36h3.218q.998 0 1.664.563t.666 1.406q0 .492-.234.929-.233.438-.643.722m9.065-3.62h1.686v7.655h-1.686zm-3.717 6.102q.532 0 .87-.311.339-.312.339-.804 0-.328-.15-.58a1.04 1.04 0 0 0-.427-.394 1.4 1.4 0 0 0-.632-.142h-1.21v2.231zm.122-3.783q.81 0 1.447.338.639.34.999.946.36.607.36 1.384 0 1.17-.787 1.92-.787.748-2.02.748h-3.017V14.36h1.686v2.319zm13.069 5.336h-1.886l-1.53-2.624-1.554 2.624h-1.886l2.418-4.013-2.263-3.642h1.886l1.387 2.362 1.398-2.362h1.842l-2.23 3.696z"/></g><defs><clipPath id="a"><path fill="#fff" d="M0 .638h71.172v24H0z"/></clipPath></defs></svg>
